; generated by PrusaSlicer 2.6.0 on 2023-07-28 at 06:51:22 UTC


;
;

;
;

;
;
; 

; external perimeters extrusion width = 0.45mm
; perimeters extrusion width = 0.45mm
; infill extrusion width = 0.45mm
; solid infill extrusion width = 0.45mm
; top infill extrusion width = 0.40mm
; first layer extrusion width = 0.50mm

M73 P0 R33
M201 X2500 Y2500 Z200 E2500 ; sets maximum accelerations, mm/sec^2
M203 X200 Y200 Z40 E100 ; sets maximum feedrates, mm / sec
M204 P2000 R1200 T2000 ; sets acceleration (P, T) and retract acceleration (R), mm/sec^2
M205 X8.00 Y8.00 Z2.00 E10.00 ; sets the jerk limits, mm/sec
M205 S0 T0 ; sets the minimum extruding and travel feed rate, mm/sec
;TYPE:Custom
M17 ; enable steppers
M862.3 P "MK4" ; printer model check
M862.1 P0.4 ; nozzle diameter check
M555 X112.5 Y88.5 W32 H29

G90 ; use absolute coordinates
M83 ; extruder relative mode

M140 S85 ; set bed temp

M104 S170 ; set extruder temp for bed leveling
M109 R170 ; wait for temp


M84 E ; turn off E motor

G28 ; home all without mesh bed level

G1 X42 Y-4 Z5 F4800

M302 S160 ; lower cold extrusion limit to 160C


G1 E-2 F2400 ; retraction


M84 E ; turn off E motor

G29 P9 X10 Y-4 W32 H4



G0 Z40 F10000

M190 S85 ; wait for bed temp

M107

;
; MBL
;
M84 E ; turn off E motor
G29 P1 ; invalidate mbl & probe print area
G29 P1 X0 Y0 W50 H20 C ; probe near purge place
G29 P3.2 ; interpolate mbl probes
G29 P3.13 ; extrapolate mbl outside probe area
G29 A ; activate mbl

; prepare for purge
M104 S230
G0 X0 Y-4 Z15 F4800 ; move away and ready for the purge
M109 S230

G92 E0
M569 S0 E ; set spreadcycle mode for extruder

;
; Extrude purge line
;
G92 E0 ; reset extruder position
G1 E2 F2400 ; deretraction after the initial one before nozzle cleaning
G0 E7 X15 Z0.2 F500 ; purge
G0 X25 E4 F500 ; purge
G0 X35 E4 F650 ; purge
G0 X45 E4 F800 ; purge
G0 X48 Z0.05 F8000 ; wipe, move close to the bed
G0 X51 Z0.2 F8000 ; wipe, move quickly away from the bed

G92 E0
M221 S100 ; set flow to 100%
G21 ; set units to millimeters
G90 ; use absolute coordinates
M83 ; use relative distances for extrusion
M900 K0.07 ; Filament gcode



M142 S36 ; set heatbreak target temp
M107
;LAYER_CHANGE
;Z:0.2
;HEIGHT:0.2
;BEFORE_LAYER_CHANGE
G92 E0.0
;0.2


G1 E-1 F2100
G1 Z.15 F720
G1 Z.2
;AFTER_LAYER_CHANGE
;0.2
; printing object Shape-Box id:0 copy 0
G1 Z.35
G1 X136.593 Y116.593 F12000
G1 Z.2 F720
G1 E1 F1500
M204 P600
;TYPE:Perimeter
;WIDTH:0.499999
G1 F1200
G1 X113.407 Y116.593 E.88121
G1 X113.407 Y93.407 E.88121
G1 X136.593 Y93.407 E.88121
G1 X136.593 Y116.533 E.87893
M204 P1000
G1 X137.05 Y117.05 F12000
M204 P600
;TYPE:External perimeter
G1 F1200
G1 X112.95 Y117.05 E.91595
G1 X112.95 Y92.95 E.91595
G1 X137.05 Y92.95 E.91595
G1 X137.05 Y116.99 E.91367
M204 P1000
G1 X136.664 Y116.946 F12000
;WIPE_START
G1 F9600
G1 X132.238 Y117.002 E-1
;WIPE_END
G1 Z.35 F720
G1 X135.455 Y93.613 F12000
G1 Z.2 F720
G1 E1 F1500
M204 P600
;TYPE:Solid infill
;WIDTH:0.503957
G1 F1200
M73 P0 R32
G1 X136.182 Y94.339 E.03939
G1 X136.182 Y94.991 E.02499
G1 X135.009 Y93.818 E.06359
G1 X134.357 Y93.818 E.02499
G1 X136.182 Y95.643 E.09894
G1 X136.182 Y96.295 E.02499
G1 X133.705 Y93.818 E.13429
G1 X133.053 Y93.818 E.02499
G1 X136.182 Y96.947 E.16964
G1 X136.182 Y97.599 E.02499
G1 X132.401 Y93.818 E.20498
G1 X131.749 Y93.818 E.02499
G1 X136.182 Y98.251 E.24033
G1 X136.182 Y98.903 E.02499
M73 P1 R32
G1 X131.097 Y93.818 E.27568
G1 X130.445 Y93.818 E.02499
G1 X136.182 Y99.555 E.31103
G1 X136.182 Y100.207 E.02499
G1 X129.793 Y93.818 E.34638
G1 X129.141 Y93.818 E.02499
G1 X136.182 Y100.859 E.38172
G1 X136.182 Y101.512 E.02503
G1 X128.489 Y93.818 E.4171
G1 X127.836 Y93.818 E.02503
G1 X136.182 Y102.164 E.45247
G1 X136.182 Y102.816 E.02499
G1 X127.184 Y93.818 E.48782
G1 X126.532 Y93.818 E.02499
G1 X136.182 Y103.468 E.52317
G1 X136.182 Y104.12 E.02499
G1 X125.88 Y93.818 E.55852
G1 X125.228 Y93.818 E.02499
G1 X136.182 Y104.772 E.59386
G1 X136.182 Y105.424 E.02499
G1 X124.576 Y93.818 E.62921
G1 X123.924 Y93.818 E.02499
G1 X136.182 Y106.076 E.66456
G1 X136.182 Y106.728 E.02499
G1 X123.272 Y93.818 E.69991
G1 X122.62 Y93.818 E.02499
G1 X136.182 Y107.38 E.73526
G1 X136.182 Y108.032 E.02499
G1 X121.968 Y93.818 E.7706
G1 X121.316 Y93.818 E.02499
G1 X136.182 Y108.684 E.80595
G1 X136.182 Y109.336 E.02499
G1 X120.664 Y93.818 E.8413
G1 X120.012 Y93.818 E.02499
G1 X136.182 Y109.988 E.87665
G1 X136.182 Y110.64 E.02499
G1 X119.36 Y93.818 E.912
G1 X118.708 Y93.818 E.02499
G1 X136.182 Y111.292 E.94734
G1 X136.182 Y111.944 E.02499
G1 X118.056 Y93.818 E.98269
G1 X117.404 Y93.818 E.02499
G1 X136.182 Y112.596 E1.01804
G1 X136.182 Y113.248 E.02499
G1 X116.752 Y93.818 E1.05339
G1 X116.1 Y93.818 E.02499
G1 X136.182 Y113.9 E1.08873
G1 X136.182 Y114.552 E.02499
G1 X115.448 Y93.818 E1.12408
G1 X114.796 Y93.818 E.02499
G1 X136.182 Y115.204 E1.15943
G1 X136.182 Y115.856 E.02499
M73 P2 R32
G1 X114.144 Y93.818 E1.19478
G1 X113.818 Y93.818 E.0125
G1 X113.818 Y94.145 E.01254
G1 X135.855 Y116.182 E1.19472
G1 X135.203 Y116.182 E.02499
G1 X113.818 Y94.797 E1.15938
G1 X113.818 Y95.449 E.02499
G1 X134.551 Y116.182 E1.12403
G1 X133.899 Y116.182 E.02499
G1 X113.818 Y96.101 E1.08868
G1 X113.818 Y96.753 E.02499
G1 X133.247 Y116.182 E1.05333
G1 X132.595 Y116.182 E.02499
G1 X113.818 Y97.405 E1.01798
G1 X113.818 Y98.057 E.02499
G1 X131.943 Y116.182 E.98264
G1 X131.291 Y116.182 E.02499
G1 X113.818 Y98.709 E.94729
G1 X113.818 Y99.361 E.02499
G1 X130.639 Y116.182 E.91194
G1 X129.987 Y116.182 E.02499
G1 X113.818 Y100.013 E.87659
G1 X113.818 Y100.665 E.02499
G1 X129.335 Y116.182 E.84125
G1 X128.683 Y116.182 E.02499
G1 X113.818 Y101.317 E.8059
G1 X113.818 Y101.969 E.02499
M73 P3 R32
G1 X128.031 Y116.182 E.77055
G1 X127.379 Y116.182 E.02499
G1 X113.818 Y102.621 E.7352
G1 X113.818 Y103.273 E.02499
G1 X126.727 Y116.182 E.69985
G1 X126.075 Y116.182 E.02499
G1 X113.818 Y103.925 E.66451
G1 X113.818 Y104.577 E.02499
G1 X125.423 Y116.182 E.62916
G1 X124.771 Y116.182 E.02499
G1 X113.818 Y105.229 E.59381
G1 X113.818 Y105.881 E.02499
G1 X124.119 Y116.182 E.55846
G1 X123.467 Y116.182 E.02499
G1 X113.818 Y106.533 E.52311
G1 X113.818 Y107.185 E.02499
G1 X122.815 Y116.182 E.48777
G1 X122.163 Y116.182 E.02499
G1 X113.818 Y107.837 E.45242
G1 X113.818 Y108.489 E.02499
G1 X121.511 Y116.182 E.41707
G1 X120.859 Y116.182 E.02499
G1 X113.818 Y109.141 E.38172
G1 X113.818 Y109.793 E.02499
G1 X120.207 Y116.182 E.34638
G1 X119.555 Y116.182 E.02499
G1 X113.818 Y110.445 E.31103
G1 X113.818 Y111.097 E.02499
G1 X118.903 Y116.182 E.27568
G1 X118.251 Y116.182 E.02499
G1 X113.818 Y111.749 E.24033
G1 X113.818 Y112.401 E.02499
G1 X117.599 Y116.182 E.20498
G1 X116.947 Y116.182 E.02499
G1 X113.818 Y113.053 E.16964
G1 X113.818 Y113.705 E.02499
G1 X116.295 Y116.182 E.13429
G1 X115.643 Y116.182 E.02499
G1 X113.818 Y114.357 E.09894
G1 X113.818 Y115.009 E.02499
G1 X114.991 Y116.182 E.06359
G1 X114.339 Y116.182 E.02499
G1 X113.613 Y115.455 E.03939
M204 P1000
; stop printing object Shape-Box id:0 copy 0
;LAYER_CHANGE
;Z:0.35
;HEIGHT:0.15
;BEFORE_LAYER_CHANGE
G92 E0.0
;0.35


;WIPE_START
G1 F9600
G1 X114.339 Y116.182 E-.21351
G1 X114.991 Y116.182 E-.13549
G1 X113.818 Y115.009 E-.34473
G1 X113.818 Y114.357 E-.13549
G1 X114.399 Y114.938 E-.17078
;WIPE_END
G1 Z.35 F720
;AFTER_LAYER_CHANGE
;0.35
M104 S240 ; set temperature
M140 S90 ; set bed temperature
; printing object Shape-Box id:0 copy 0
G1 Z.5
G1 X136.857 Y116.857 F12000
G1 Z.35 F720
G1 E1 F1500
M204 P900
;TYPE:Perimeter
;WIDTH:0.449999
G1 F2700
G1 X113.143 Y116.857 E.61789
G1 X113.143 Y93.143 E.61789
G1 X136.857 Y93.143 E.61789
G1 X136.857 Y116.797 E.61632
M204 P1000
G1 X137.275 Y117.275 F12000
M204 P700
;TYPE:External perimeter
G1 F1500
M73 P3 R31
G1 X112.725 Y117.275 E.63967
G1 X112.725 Y92.725 E.63967
G1 X137.275 Y92.725 E.63967
G1 X137.275 Y117.215 E.6381
M204 P1000
G1 X136.889 Y117.171 F12000
;WIPE_START
G1 F9600
G1 X132.463 Y117.227 E-1
;WIPE_END
M73 P4 R31
G1 Z.5 F720
G1 X113.632 Y93.553 F12000
G1 Z.35 F720
G1 E1 F1500
M204 P1500
;TYPE:Solid infill
;WIDTH:0.55137
G1 F5400
G1 X113.586 Y93.507 E.00211
G1 X113.524 Y93.524 E.00208
G1 X113.507 Y93.586 E.00208
G1 X113.553 Y93.632 E.00211
G1 X113.615 Y93.615 E.00208
M204 P1000
G1 X113.371 Y94.473 F12000
M204 P1500
;WIDTH:0.37219
G1 F5400
G1 X113.33 Y94.484 E.0009
G1 X113.31 Y94.413 E.00156
G1 X113.382 Y94.432 E.00158
;WIDTH:0.411095
G1 X113.45 Y94.357 E.00239
;WIDTH:0.449999
G1 X114.283 Y93.519 E.03079
G1 X114.378 Y93.445 E.00314
;WIDTH:0.411095
G1 X114.473 Y93.371 E.00285
;WIDTH:0.37219
G1 X114.432 Y93.382 E.0009
G1 X114.413 Y93.31 E.00158
G1 X114.484 Y93.33 E.00156
;WIDTH:0.449999
G1 X114.874 Y93.519 E.01129
G1 X113.519 Y94.874 E.04993
G1 X113.519 Y95.465 E.0154
G1 X115.465 Y93.519 E.07171
G1 X116.055 Y93.519 E.01537
G1 X113.519 Y96.055 E.09345
G1 X113.519 Y96.646 E.0154
G1 X116.646 Y93.519 E.11522
G1 X117.237 Y93.519 E.0154
G1 X113.519 Y97.237 E.137
G1 X113.519 Y97.828 E.0154
G1 X117.828 Y93.519 E.15878
G1 X118.419 Y93.519 E.0154
G1 X113.519 Y98.419 E.18056
G1 X113.519 Y99.01 E.0154
G1 X119.01 Y93.519 E.20233
G1 X119.601 Y93.519 E.0154
G1 X113.519 Y99.601 E.22411
G1 X113.519 Y100.191 E.01537
G1 X120.191 Y93.519 E.24585
G1 X120.782 Y93.519 E.0154
G1 X113.519 Y100.782 E.26763
G1 X113.519 Y101.373 E.0154
G1 X121.373 Y93.519 E.28941
G1 X121.964 Y93.519 E.0154
G1 X113.519 Y101.964 E.31118
G1 X113.519 Y102.555 E.0154
G1 X122.555 Y93.519 E.33296
G1 X123.146 Y93.519 E.0154
G1 X113.519 Y103.146 E.35474
G1 X113.519 Y103.737 E.0154
G1 X123.737 Y93.519 E.37652
G1 X124.328 Y93.519 E.0154
G1 X113.519 Y104.328 E.39829
G1 X113.519 Y104.918 E.01537
G1 X124.918 Y93.519 E.42003
G1 X125.509 Y93.519 E.0154
G1 X113.519 Y105.509 E.44181
G1 X113.519 Y106.1 E.0154
G1 X126.1 Y93.519 E.46359
G1 X126.691 Y93.519 E.0154
G1 X113.519 Y106.691 E.48537
G1 X113.519 Y107.282 E.0154
G1 X127.282 Y93.519 E.50714
G1 X127.873 Y93.519 E.0154
G1 X113.519 Y107.873 E.52892
G1 X113.519 Y108.464 E.0154
G1 X128.464 Y93.519 E.5507
G1 X129.055 Y93.519 E.0154
G1 X113.519 Y109.055 E.57248
G1 X113.519 Y109.645 E.01537
G1 X129.645 Y93.519 E.59422
G1 X130.236 Y93.519 E.0154
G1 X113.519 Y110.236 E.61599
G1 X113.519 Y110.827 E.0154
G1 X130.827 Y93.519 E.63777
G1 X131.418 Y93.519 E.0154
G1 X113.519 Y111.418 E.65955
G1 X113.519 Y112.009 E.0154
G1 X132.009 Y93.519 E.68133
G1 X132.6 Y93.519 E.0154
G1 X113.519 Y112.6 E.7031
G1 X113.519 Y113.191 E.0154
G1 X133.191 Y93.519 E.72488
G1 X133.782 Y93.519 E.0154
G1 X113.519 Y113.782 E.74666
G1 X113.519 Y114.372 E.01537
G1 X134.372 Y93.519 E.7684
G1 X134.963 Y93.519 E.0154
G1 X113.519 Y114.963 E.79018
G1 X113.519 Y115.554 E.0154
G1 X135.554 Y93.519 E.81195
G1 X136.145 Y93.519 E.0154
G1 X113.519 Y116.145 E.83373
G1 X113.495 Y116.352 E.00543
;WIDTH:0.411095
G1 X113.471 Y116.559 E.00492
;WIDTH:0.37219
G1 X113.4 Y116.54 E.00156
G1 X113.419 Y116.611 E.00156
G1 X113.46 Y116.6 E.0009
;WIDTH:0.449999
G1 X113.774 Y116.481 E.00875
G1 X136.481 Y93.774 E.83672
G1 X136.541 Y93.617 E.00438
;WIDTH:0.411095
G1 X136.6 Y93.46 E.00396
;WIDTH:0.37219
G1 X136.559 Y93.471 E.0009
G1 X136.54 Y93.4 E.00156
G1 X136.611 Y93.419 E.00156
M204 P1000
G1 X136.481 Y94.364 F12000
M204 P1500
;WIDTH:0.449999
G1 F5400
G1 X114.364 Y116.481 E.81497
G1 X114.955 Y116.481 E.0154
G1 X136.481 Y94.955 E.7932
G1 X136.481 Y95.546 E.0154
G1 X115.546 Y116.481 E.77142
G1 X116.137 Y116.481 E.0154
G1 X136.481 Y96.137 E.74964
G1 X136.481 Y96.728 E.0154
G1 X116.728 Y116.481 E.72787
G1 X117.319 Y116.481 E.0154
G1 X136.481 Y97.319 E.70609
G1 X136.481 Y97.91 E.0154
G1 X117.91 Y116.481 E.68431
G1 X118.501 Y116.481 E.0154
G1 X136.481 Y98.501 E.66253
G1 X136.481 Y99.091 E.01537
G1 X119.091 Y116.481 E.64079
G1 X119.682 Y116.481 E.0154
G1 X136.481 Y99.682 E.61902
G1 X136.481 Y100.273 E.0154
G1 X120.273 Y116.481 E.59724
G1 X120.864 Y116.481 E.0154
G1 X136.481 Y100.864 E.57546
G1 X136.481 Y101.455 E.0154
G1 X121.455 Y116.481 E.55368
G1 X122.046 Y116.481 E.0154
G1 X136.481 Y102.046 E.53191
G1 X136.481 Y102.637 E.0154
G1 X122.637 Y116.481 E.51013
G1 X123.227 Y116.481 E.01537
G1 X136.481 Y103.227 E.48839
G1 X136.481 Y103.818 E.0154
G1 X123.818 Y116.481 E.46661
G1 X124.409 Y116.481 E.0154
G1 X136.481 Y104.409 E.44483
G1 X136.481 Y105 E.0154
M73 P5 R31
G1 X125 Y116.481 E.42306
G1 X125.591 Y116.481 E.0154
G1 X136.481 Y105.591 E.40128
G1 X136.481 Y106.182 E.0154
G1 X126.182 Y116.481 E.3795
G1 X126.773 Y116.481 E.0154
G1 X136.481 Y106.773 E.35772
G1 X136.481 Y107.364 E.0154
G1 X127.364 Y116.481 E.33595
G1 X127.954 Y116.481 E.01537
G1 X136.481 Y107.954 E.31421
G1 X136.481 Y108.545 E.0154
G1 X128.545 Y116.481 E.29243
G1 X129.136 Y116.481 E.0154
G1 X136.481 Y109.136 E.27065
G1 X136.481 Y109.727 E.0154
G1 X129.727 Y116.481 E.24887
G1 X130.318 Y116.481 E.0154
G1 X136.481 Y110.318 E.2271
G1 X136.481 Y110.909 E.0154
G1 X130.909 Y116.481 E.20532
G1 X131.5 Y116.481 E.0154
G1 X136.481 Y111.5 E.18354
G1 X136.481 Y112.091 E.0154
G1 X132.091 Y116.481 E.16176
G1 X132.681 Y116.481 E.01537
G1 X136.481 Y112.681 E.14002
G1 X136.481 Y113.272 E.0154
G1 X133.272 Y116.481 E.11825
G1 X133.863 Y116.481 E.0154
G1 X136.481 Y113.863 E.09647
G1 X136.481 Y114.454 E.0154
G1 X134.454 Y116.481 E.07469
G1 X135.045 Y116.481 E.0154
G1 X136.481 Y115.045 E.05291
G1 X136.481 Y115.636 E.0154
G1 X135.636 Y116.481 E.03114
G1 X136.457 Y116.457 E.0214
;WIDTH:0.599082
G1 X136.388 Y116.475 E.00252
G1 X136.338 Y116.425 E.0025
G1 X136.357 Y116.357 E.0025
G1 X136.425 Y116.338 E.0025
G1 X136.475 Y116.388 E.0025
M204 P1000
; stop printing object Shape-Box id:0 copy 0
;LAYER_CHANGE
;Z:0.5
;HEIGHT:0.15
;BEFORE_LAYER_CHANGE
G92 E0.0
;0.5


;WIPE_START
G1 F9600
G1 X136.425 Y116.338 E-.01469
G1 X136.357 Y116.357 E-.01467
G1 X136.338 Y116.425 E-.01467
G1 X136.388 Y116.475 E-.01469
G1 X136.457 Y116.457 E-.01482
G1 X135.636 Y116.481 E-.17069
G1 X136.481 Y115.636 E-.24834
G1 X136.481 Y115.045 E-.12282
G1 X135.172 Y116.354 E-.38461
;WIPE_END
G1 Z.5 F720
;AFTER_LAYER_CHANGE
;0.5
; printing object Shape-Box id:0 copy 0
G1 Z.65
G1 X136.857 Y116.857 F12000
G1 Z.5 F720
G1 E1 F1500
M204 P900
;TYPE:Perimeter
;WIDTH:0.449999
G1 F2287.869

G1 X113.143 Y116.857 E.61789
G1 F2205.436
G1 X113.143 Y93.143 E.61789
G1 X136.857 Y93.143 E.61789
G1 F2159.659
G1 X136.857 Y116.797 E.61632

M204 P1000
G1 X137.275 Y117.275 F12000
M204 P700
;TYPE:External perimeter
G1 F1500
G1 X112.725 Y117.275 E.63967
G1 X112.725 Y92.725 E.63967
G1 X137.275 Y92.725 E.63967
G1 X137.275 Y117.215 E.6381
M204 P1000
G1 X136.889 Y117.171 F12000
;WIPE_START
G1 F9600
G1 X132.463 Y117.227 E-1
;WIPE_END
G1 Z.65 F720
G1 X113.553 Y116.368 F12000
G1 Z.5 F720
G1 E1 F1500
M204 P1500
;TYPE:Solid infill
;WIDTH:0.55137
G1 F5400
G1 X113.507 Y116.414 E.00211
G1 X113.524 Y116.476 E.00208
G1 X113.586 Y116.493 E.00208
G1 X113.632 Y116.447 E.00211
G1 X113.615 Y116.385 E.00208
;WIDTH:0.449999
G1 X114.283 Y116.481 E.01758
G1 X113.519 Y115.717 E.02815
G1 X113.445 Y115.622 E.00314
;WIDTH:0.411095
G1 X113.371 Y115.527 E.00285
;WIDTH:0.37219
G1 X113.382 Y115.568 E.0009
G1 X113.31 Y115.587 E.00158
G1 X113.33 Y115.516 E.00156
;WIDTH:0.449999
G1 X113.519 Y115.126 E.01129
G1 X114.874 Y116.481 E.04993
G1 X115.465 Y116.481 E.0154
G1 X113.519 Y114.535 E.07171
G1 X113.519 Y113.945 E.01537
G1 X116.055 Y116.481 E.09345
G1 X116.646 Y116.481 E.0154
G1 X113.519 Y113.354 E.11522
G1 X113.519 Y112.763 E.0154
G1 X117.237 Y116.481 E.137
G1 X117.828 Y116.481 E.0154
G1 X113.519 Y112.172 E.15878
G1 X113.519 Y111.581 E.0154
G1 X118.419 Y116.481 E.18056
G1 X119.01 Y116.481 E.0154
G1 X113.519 Y110.99 E.20233
G1 X113.519 Y110.399 E.0154
G1 X119.601 Y116.481 E.22411
G1 X120.191 Y116.481 E.01537
G1 X113.519 Y109.809 E.24585
G1 X113.519 Y109.218 E.0154
G1 X120.782 Y116.481 E.26763
G1 X121.373 Y116.481 E.0154
G1 X113.519 Y108.627 E.28941
G1 X113.519 Y108.036 E.0154
G1 X121.964 Y116.481 E.31118
G1 X122.555 Y116.481 E.0154
G1 X113.519 Y107.445 E.33296
G1 X113.519 Y106.854 E.0154
G1 X123.146 Y116.481 E.35474
G1 X123.737 Y116.481 E.0154
G1 X113.519 Y106.263 E.37652
G1 X113.519 Y105.672 E.0154
G1 X124.328 Y116.481 E.39829
G1 X124.918 Y116.481 E.01537
G1 X113.519 Y105.082 E.42003
G1 X113.519 Y104.491 E.0154
