; generated by PrusaSlicer 2.8.1 on 2024-10-21 at 06:38:01 UTC


; printer_model = MK4S
; filament_type = PLA
; filament_abrasive = 0
; nozzle_diameter = 0.4
; nozzle_high_flow = 0
; bed_temperature = 60
; brim_width = 0
; fill_density = 15%
; layer_height = 0.2
; temperature = 225
; ironing = 0
; support_material = 0
; max_layer_z = 6.20
; extruder_colour = ""
; filament used [mm] = 252.22
; filament used [cm3] = 0.61
; filament used [g] = 0.75
; filament cost = 0.03
; estimated printing time (normal mode) = 3m 41s
; estimated printing time (silent mode) = 3m 47s
; total filament used for wipe tower [g] = 0.00
; objects_info = {"objects":[{"name":"Shape-Box","polygon":[[131.250,111.250],[118.750,111.250],[118.750,98.750],[131.250,98.750]]}]}

;
;

;
;

M73 P0 R3
M73 Q0 S3
M201 X4000 Y4000 Z200 E2500
M203 X300 Y300 Z40 E100
M204 P4000 R1200 T4000
M205 X8.00 Y8.00 Z2.00 E10.00
M205 S0 T0
M486 S0
M486 AShape-Box
M486 S-1
;TYPE:Custom
M17
M862.1 P0.4 A0 F0
M862.3 P "MK4S"
M862.5 P2
M862.6 P"Input shaper"
M115 U6.1.3+7898
M555 X118.75 Y94.75 W32 H16.5
G90
M83
M140 S60
M104 T0 S170
M109 T0 R170
M84 E
G28
G1 X42 Y-4 Z5 F4800
M302 S160
G1 E-2 F2400
M84 E
G29 P9 X10 Y-4 W32 H4
M106 S100
G0 Z40 F10000
M190 S60
M107
; MBL
M84 E
G29 P1
G29 P1 X0 Y0 W50 H20 C
G29 P3.2
G29 P3.13
G29 A
; prepare for purge
M104 S230
G0 X0 Y-4 Z15 F4800
M109 S230
G92 E0
M569 S0 E
; Extrude purge line
G92 E0
G1 E2 F2400
M73 P1 R3
M73 Q1 S3
G0 E7 X15 Z0.2 F500
G0 X25 E4 F500
M73 P2 R3
M73 Q2 S3
G0 X35 E4 F650
G0 X45 E4 F800
M73 P3 R3
M73 Q3 S3
G0 X48 Z0.05 F8000
G0 X51 Z0.2 F8000
G92 E0
M221 S100
G21
G90
M83
M900 K0.05
M572 S0.036
M142 S36
M107
;LAYER_CHANGE
;Z:0.2
;HEIGHT:0.2
G1 E-.7 F2100
G1 Z.8 F720
M486 S0
G1 X130.343 Y110.343 F18000
G1 Z.2 F720
G1 E.7 F1500
M204 P500
;TYPE:Perimeter
;WIDTH:0.499999
G1 F2400
M73 Q4 S3
G1 X119.657 Y110.343 E.40614
G1 X119.657 Y99.657 E.40614
M73 P4 R3
G1 X130.343 Y99.657 E.40614
G1 X130.343 Y105 E.20307
G1 X130.343 Y110.283 E.20079
M204 P4000
M204 T4000
G1 X130.8 Y110.8 F18000
M204 P500
;TYPE:External perimeter
G1 F2400
G1 X119.2 Y110.8 E.44087
G1 X119.2 Y99.2 E.44087
G1 X130.8 Y99.2 E.44087
G1 X130.8 Y105 E.22044
M73 P5 R3
M73 Q5 S3
G1 X130.8 Y110.74 E.21816
M204 P4000
G1 X130.404 Y110.799 F18000
G1 E-.7 F2100
G1 X129.234 Y99.84 Z.392 F18000
G1 Z.2 F720
G1 E.7 F1500
M204 P500
;TYPE:Solid infill
;WIDTH:0.501031
G1 F2400
G1 X129.954 Y100.56 E.03879
G1 X129.954 Y101.208 E.02468
G1 X128.792 Y100.046 E.0626
G1 X128.144 Y100.046 E.02468
G1 X129.954 Y101.856 E.09751
G1 X129.954 Y102.504 E.02468
G1 X127.496 Y100.046 E.13241
G1 X126.848 Y100.046 E.02468
G1 X129.954 Y103.152 E.16732
G1 X129.954 Y103.8 E.02468
G1 X126.2 Y100.046 E.20223
G1 X125.552 Y100.046 E.02468
G1 X129.954 Y104.448 E.23714
G1 X129.954 Y105.095 E.02465
G1 X124.905 Y100.046 E.27199
G1 X124.257 Y100.046 E.02468
G1 X129.954 Y105.743 E.3069
G1 X129.954 Y106.391 E.02468
M73 P6 R3
M73 Q6 S3
G1 X123.609 Y100.046 E.34181
G1 X122.961 Y100.046 E.02468
G1 X129.954 Y107.039 E.37672
G1 X129.954 Y107.687 E.02468
G1 X122.313 Y100.046 E.41162
G1 X121.665 Y100.046 E.02468
G1 X129.954 Y108.335 E.44653
G1 X129.954 Y108.983 E.02468
G1 X121.017 Y100.046 E.48144
G1 X120.369 Y100.046 E.02468
G1 X129.954 Y109.631 E.51635
G1 X129.954 Y109.954 E.0123
M73 P7 R3
M73 Q7 S3
G1 X129.63 Y109.954 E.01234
G1 X120.046 Y100.37 E.51629
G1 X120.046 Y101.017 E.02465
G1 X128.983 Y109.954 E.48144
G1 X128.335 Y109.954 E.02468
G1 X120.046 Y101.665 E.44653
G1 X120.046 Y102.313 E.02468
G1 X127.687 Y109.954 E.41162
G1 X127.039 Y109.954 E.02468
G1 X120.046 Y102.961 E.37672
G1 X120.046 Y103.609 E.02468
G1 X126.391 Y109.954 E.34181
G1 X125.743 Y109.954 E.02468
M73 P8 R3
M73 Q8 S3
G1 X120.046 Y104.257 E.3069
G1 X120.046 Y104.905 E.02468
G1 X125.095 Y109.954 E.27199
G1 X124.447 Y109.954 E.02468
G1 X120.046 Y105.553 E.23708
G1 X120.046 Y106.2 E.02465
G1 X123.8 Y109.954 E.20223
G1 X123.152 Y109.954 E.02468
G1 X120.046 Y106.848 E.16732
G1 X120.046 Y107.496 E.02468
G1 X122.504 Y109.954 E.13241
G1 X121.856 Y109.954 E.02468
G1 X120.046 Y108.144 E.09751
G1 X120.046 Y108.792 E.02468
G1 X121.208 Y109.954 E.0626
G1 X120.56 Y109.954 E.02468
G1 X119.84 Y109.234 E.03879
M204 P4000
M106 S127.5
;LAYER_CHANGE
;Z:0.4
;HEIGHT:0.2
;BEFORE_LAYER_CHANGE
G92 E0.0
;0.4
M201 X3999.96 Y3999.96
G1 E-.7 F2100
G1 X119.84 Y109.234 Z.2 F18000
G1 X130.618 Y110.618 Z.4
;AFTER_LAYER_CHANGE
;0.4
M74 W0.0366307
M104 S225
G1 X130.618 Y110.618
G1 Z.4 F720
G1 E.7 F1500
;TYPE:Perimeter
;WIDTH:0.449999
G1 F4091
G1 X119.382 Y110.618 E.38032
G1 X119.382 Y99.382 E.38032
M73 P9 R3
G1 X130.618 Y99.382 E.38032
M73 Q9 S3
G1 X130.618 Y110.558 E.37829
G1 X131.025 Y111.025 F18000
;TYPE:External perimeter
G1 F4091
G1 X130.35 Y111.025 E.02285
G1 X119.65 Y111.025 E.36218
G1 X118.975 Y111.025 E.02285
G1 X118.975 Y110.35 E.02285
G1 X118.975 Y99.65 E.36218
G1 X118.975 Y98.975 E.02285
G1 X119.65 Y98.975 E.02285
G1 X130.35 Y98.975 E.36218
G1 X131.025 Y98.975 E.02285
G1 X131.025 Y99.65 E.02285
G1 X131.025 Y110.35 E.36218
G1 X131.025 Y110.965 E.02082
G1 X130.629 Y111.024 F18000
G1 E-.7 F2100
G1 X119.839 Y99.761 Z.672 F18000
G1 Z.4 F720
G1 E.7 F1500
;TYPE:Solid infill
;WIDTH:0.548766
G1 F4091
G2 X119.822 Y99.822 I-.059 J.017 E.01322
;WIDTH:0.449999
G1 X119.728 Y100.472 E.02223
G1 X120.472 Y99.728 E.03561
G1 X121.048 Y99.728 E.0195
G1 X119.728 Y101.048 E.06319
G1 X119.728 Y101.624 E.0195
G1 X121.624 Y99.728 E.09076
G1 X122.2 Y99.728 E.0195
G1 X119.728 Y102.2 E.11833
G1 X119.728 Y102.775 E.01946
G1 X122.775 Y99.728 E.14586
G1 X123.351 Y99.728 E.0195
G1 X119.728 Y103.351 E.17343
G1 X119.728 Y103.927 E.0195
G1 X123.927 Y99.728 E.201
G1 X124.502 Y99.728 E.01946
M73 P10 R3
M73 Q10 S3
G1 X119.728 Y104.502 E.22853
G1 X119.728 Y105.078 E.0195
G1 X125.078 Y99.728 E.2561
G1 X125.654 Y99.728 E.0195
G1 X119.728 Y105.654 E.28367
G1 X119.728 Y106.229 E.01946
G1 X126.229 Y99.728 E.3112
G1 X126.805 Y99.728 E.0195
G1 X119.728 Y106.805 E.33877
G1 X119.728 Y107.381 E.0195
G1 X127.381 Y99.728 E.36634
G1 X127.956 Y99.728 E.01946
G1 X119.728 Y107.956 E.39387
G1 X119.728 Y108.532 E.0195
G1 X128.532 Y99.728 E.42144
G1 X129.108 Y99.728 E.0195
G1 X119.728 Y109.108 E.44901
G1 X119.728 Y109.684 E.0195
G1 X129.684 Y99.728 E.47659
G1 X130.259 Y99.728 E.01946
G1 X119.728 Y110.259 E.50411
G1 X120.291 Y110.272 E.01906
G1 X130.272 Y100.291 E.47778
G1 X130.272 Y100.867 E.0195
M73 P11 R3
M73 Q11 S3
G1 X120.867 Y110.272 E.45021
G1 X121.443 Y110.272 E.0195
G1 X130.272 Y101.443 E.42264
G1 X130.272 Y102.018 E.01946
G1 X122.018 Y110.272 E.39511
G1 X122.594 Y110.272 E.0195
G1 X130.272 Y102.594 E.36754
G1 X130.272 Y103.17 E.0195
G1 X123.17 Y110.272 E.33997
G1 X123.745 Y110.272 E.01946
G1 X130.272 Y103.745 E.31244
G1 X130.272 Y104.321 E.0195
G1 X124.321 Y110.272 E.28487
G1 X124.897 Y110.272 E.0195
G1 X130.272 Y104.897 E.2573
G1 X130.272 Y105.472 E.01946
G1 X125.472 Y110.272 E.22977
G1 X126.048 Y110.272 E.0195
G1 X130.272 Y106.048 E.2022
G1 X130.272 Y106.624 E.0195
G1 X126.624 Y110.272 E.17463
G1 X127.2 Y110.272 E.0195
G1 X130.272 Y107.2 E.14705
G1 X130.272 Y107.775 E.01946
M73 Q12 S3
G1 X127.775 Y110.272 E.11953
G1 X128.351 Y110.272 E.0195
G1 X130.272 Y108.351 E.09196
M73 P12 R3
G1 X130.272 Y110.272 E.06502
G1 X128.927 Y110.272 E.04553
G1 X130.128 Y109.071 E.05749
M106 S252.45
;LAYER_CHANGE
;Z:0.6
;HEIGHT:0.2
;BEFORE_LAYER_CHANGE
G92 E0.0
;0.6
M201 X3999.92 Y3999.92
G1 E-.7 F2100
G1 X130.128 Y109.071 Z.4 F18000
G1 X130.618 Y110.618 Z.6 F6329.475
;AFTER_LAYER_CHANGE
;0.6
M74 W0.0757207
G1 X130.618 Y110.618 F18000
G1 Z.6 F720
G1 E.7 F1500
;TYPE:Perimeter
G1 F4084
G1 X119.382 Y110.618 E.38032
G1 X119.382 Y99.382 E.38032
G1 X130.618 Y99.382 E.38032
G1 X130.618 Y110.558 E.37829
G1 X131.025 Y111.025 F18000
;TYPE:External perimeter
G1 F4084
G1 X118.975 Y111.025 E.40788
G1 X118.975 Y98.975 E.40788
G1 X131.025 Y98.975 E.40788
G1 X131.025 Y110.965 E.40585
G1 X130.629 Y111.024 F18000
G1 E-.7 F2100
G1 X119.761 Y110.161 Z.79 F18000
G1 Z.6 F720
G1 E.7 F1500
;TYPE:Solid infill
;WIDTH:0.548766
G1 F4084
M73 Q13 S3
G2 X119.822 Y110.178 I.017 J.059 E.01322
;WIDTH:0.449999
G1 X119.728 Y109.528 E.02223
G1 X120.472 Y110.272 E.03561
G1 X121.048 Y110.272 E.0195
G1 X119.728 Y108.952 E.06319
G1 X119.728 Y108.376 E.0195
G1 X121.624 Y110.272 E.09076
G1 X122.2 Y110.272 E.0195
M73 P13 R3
G1 X119.728 Y107.801 E.11831
G1 X119.728 Y107.225 E.0195
G1 X122.775 Y110.272 E.14586
G1 X123.351 Y110.272 E.0195
G1 X119.728 Y106.649 E.17343
G1 X119.728 Y106.073 E.0195
G1 X123.927 Y110.272 E.201
G1 X124.502 Y110.272 E.01946
G1 X119.728 Y105.498 E.22853
G1 X119.728 Y104.922 E.0195
G1 X125.078 Y110.272 E.2561
G1 X125.654 Y110.272 E.0195
G1 X119.728 Y104.346 E.28367
G1 X119.728 Y103.771 E.01946
G1 X126.229 Y110.272 E.3112
G1 X126.805 Y110.272 E.0195
G1 X119.728 Y103.195 E.33877
G1 X119.728 Y102.619 E.0195
G1 X127.381 Y110.272 E.36634
G1 X127.956 Y110.272 E.01946
G1 X119.728 Y102.044 E.39387
G1 X119.728 Y101.468 E.0195
G1 X128.532 Y110.272 E.42144
G1 X129.108 Y110.272 E.0195
G1 X119.728 Y100.892 E.44901
G1 X119.728 Y100.316 E.0195
M73 Q14 S3
G1 X129.684 Y110.272 E.47659
G1 X130.259 Y110.272 E.01946
M73 P14 R3
G1 X119.728 Y99.741 E.50411
G1 X120.291 Y99.728 E.01906
G1 X130.272 Y109.709 E.47778
G1 X130.272 Y109.133 E.0195
G1 X120.867 Y99.728 E.45021
G1 X121.443 Y99.728 E.0195
G1 X130.272 Y108.557 E.42264
G1 X130.272 Y107.982 E.01946
G1 X122.018 Y99.728 E.39511
G1 X122.594 Y99.728 E.0195
G1 X130.272 Y107.406 E.36754
G1 X130.272 Y106.83 E.0195
G1 X123.17 Y99.728 E.33997
G1 X123.745 Y99.728 E.01946
G1 X130.272 Y106.255 E.31244
G1 X130.272 Y105.679 E.0195
G1 X124.321 Y99.728 E.28487
G1 X124.897 Y99.728 E.0195
M73 Q15 S3
G1 X130.272 Y105.103 E.2573
G1 X130.272 Y104.528 E.01946
G1 X125.472 Y99.728 E.22977
G1 X126.048 Y99.728 E.0195
G1 X130.272 Y103.952 E.2022
G1 X130.272 Y103.376 E.0195
M73 P15 R3
G1 X126.624 Y99.728 E.17463
G1 X127.2 Y99.728 E.0195
G1 X130.272 Y102.801 E.14708
G1 X130.272 Y102.225 E.0195
G1 X127.775 Y99.728 E.11953
G1 X128.351 Y99.728 E.0195
G1 X130.272 Y101.649 E.09196
G1 E-.7 F2100
G1 X130.272 Y101.649 F18000
G1 X129.071 Y99.872 Z.637
G1 Z.6 F720
G1 E.7 F1500
G1 F4084
G1 X130.272 Y101.073 E.05749
G1 X130.272 Y99.728 E.04553
G1 X128.927 Y99.728 E.04553
;LAYER_CHANGE
;Z:0.8
;HEIGHT:0.2
;BEFORE_LAYER_CHANGE
G92 E0.0
;0.8
M201 X3999.88 Y3999.88
G1 E-.7 F2100
G1 X128.927 Y99.728 Z.6 F18000
G1 X130.618 Y110.618 Z.8
;AFTER_LAYER_CHANGE
;0.8
M74 W0.114753
G1 X130.618 Y110.618
G1 Z.8 F720
G1 E.7 F1500
;TYPE:Perimeter
G1 F1674
G1 X119.382 Y110.618 E.38032
G1 X119.382 Y99.382 E.38032
G1 X130.618 Y99.382 E.38032
G1 X130.618 Y110.558 E.37829
M73 Q16 S3
G1 X131.025 Y111.025 F18000
M73 P16 R3
;TYPE:External perimeter
G1 F1674
G1 X118.975 Y111.025 E.40788
G1 X118.975 Y98.975 E.40788
G1 X131.025 Y98.975 E.40788
G1 X131.025 Y110.965 E.40585
G1 X130.629 Y111.024 F18000
M73 Q17 S3
G1 E-.7 F2100
G1 X130.272 Y104.596 Z.912 F18000
G1 Z.8 F720
G1 E.7 F1500
;TYPE:Internal infill
;WIDTH:0.45
G1 F1674
G1 X130.272 Y102.596 E.0677
G1 X127.404 Y99.728 E.13729
M73 P17 R3
G1 X130.272 Y99.728 E.09708
G1 X119.728 Y110.272 E.50474
G1 X119.728 Y107.404 E.09708
G1 X122.596 Y110.272 E.13729
G1 X127.404 Y110.272 E.16275
G1 X130.272 Y107.404 E.13729
G1 X130.272 Y110.272 E.09708
G1 X119.728 Y99.728 E.50474
G1 X119.728 Y102.596 E.09708
M73 Q18 S3
G1 X122.596 Y99.728 E.13729
G1 X124.596 Y99.728 E.0677
M73 P18 R3
;LAYER_CHANGE
;Z:1
;HEIGHT:0.2
;BEFORE_LAYER_CHANGE
G92 E0.0
;1
M201 X3999.86 Y3999.86
G1 E-.7 F2100
G1 X124.596 Y99.728 Z.8 F18000
G1 X130.618 Y110.618 Z1.017
;AFTER_LAYER_CHANGE
;1
M74 W0.13084
G1 X130.618 Y110.618
G1 Z1 F720
G1 E.7 F1500
;TYPE:Perimeter
;WIDTH:0.449999
G1 F1659
G1 X119.382 Y110.618 E.38032
G1 X119.382 Y99.382 E.38032
G1 X130.618 Y99.382 E.38032
G1 X130.618 Y110.558 E.37829
G1 X131.025 Y111.025 F18000
M73 Q19 S3
;TYPE:External perimeter
G1 F1659
G1 X118.975 Y111.025 E.40788
G1 X118.975 Y98.975 E.40788
M73 P19 R2
G1 X131.025 Y98.975 E.40788
G1 X131.025 Y110.965 E.40585
G1 X130.629 Y111.024 F18000
G1 E-.7 F2100
G1 X130.272 Y104.596 Z1.112 F18000
G1 Z1 F720
G1 E.7 F1500
;TYPE:Internal infill
;WIDTH:0.45
G1 F1659
G1 X130.272 Y102.596 E.0677
G1 X127.404 Y99.728 E.13729
M73 Q20 S3
G1 X130.272 Y99.728 E.09708
G1 X119.728 Y110.272 E.50474
G1 X119.728 Y107.404 E.09708
M73 P20 R2
G1 X122.596 Y110.272 E.13729
G1 X127.404 Y110.272 E.16275
G1 X130.272 Y107.404 E.13729
G1 X130.272 Y110.272 E.09708
G1 X119.728 Y99.728 E.50474
G1 X119.728 Y102.596 E.09708
G1 X122.596 Y99.728 E.13729
G1 X124.596 Y99.728 E.0677
M73 Q21 S3
;LAYER_CHANGE
;Z:1.2
;HEIGHT:0.2
;BEFORE_LAYER_CHANGE
G92 E0.0
;1.2
M201 X3999.84 Y3999.84
G1 E-.7 F2100
G1 X124.596 Y99.728 Z1 F18000
G1 X130.618 Y110.618 Z1.217
;AFTER_LAYER_CHANGE
;1.2
M74 W0.146928
G1 X130.618 Y110.618
M73 Q21 S2
G1 Z1.2 F720
G1 E.7 F1500
;TYPE:Perimeter
;WIDTH:0.449999
G1 F1659
G1 X119.382 Y110.618 E.38032
G1 X119.382 Y99.382 E.38032
M73 P21 R2
G1 X130.618 Y99.382 E.38032
G1 X130.618 Y110.558 E.37829
G1 X131.025 Y111.025 F18000
;TYPE:External perimeter
G1 F1659
G1 X118.975 Y111.025 E.40788
G1 X118.975 Y98.975 E.40788
M73 Q22 S2
G1 X131.025 Y98.975 E.40788
M73 P22 R2
G1 X131.025 Y110.965 E.40585
G1 X130.629 Y111.024 F18000
G1 E-.7 F2100
G1 X130.272 Y104.596 Z1.312 F18000
G1 Z1.2 F720
G1 E.7 F1500
;TYPE:Internal infill
;WIDTH:0.45
G1 F1659
G1 X130.272 Y102.596 E.0677
G1 X127.404 Y99.728 E.13729
G1 X130.272 Y99.728 E.09708
G1 X119.728 Y110.272 E.50474
G1 X119.728 Y107.404 E.09708
M73 P23 R2
M73 Q23 S2
G1 X122.596 Y110.272 E.13729
G1 X127.404 Y110.272 E.16275
G1 X130.272 Y107.404 E.13729
G1 X130.272 Y110.272 E.09708
G1 X119.728 Y99.728 E.50474
G1 X119.728 Y102.596 E.09708
G1 X122.596 Y99.728 E.13729
G1 X124.596 Y99.728 E.0677
;LAYER_CHANGE
;Z:1.4
;HEIGHT:0.2
;BEFORE_LAYER_CHANGE
G92 E0.0
;1.4
M201 X3999.83 Y3999.83
G1 E-.7 F2100
G1 X124.596 Y99.728 Z1.2 F18000
G1 X130.618 Y110.618 Z1.417
;AFTER_LAYER_CHANGE
;1.4
M74 W0.163015
G1 X130.618 Y110.618
G1 Z1.4 F720
G1 E.7 F1500
;TYPE:Perimeter
;WIDTH:0.449999
G1 F1659
G1 X119.382 Y110.618 E.38032
G1 X119.382 Y99.382 E.38032
M73 Q24 S2
G1 X130.618 Y99.382 E.38032
M73 P24 R2
G1 X130.618 Y110.558 E.37829
G1 X131.025 Y111.025 F18000
;TYPE:External perimeter
G1 F1659
G1 X118.975 Y111.025 E.40788
G1 X118.975 Y98.975 E.40788
G1 X131.025 Y98.975 E.40788
M73 Q25 S2
G1 X131.025 Y110.965 E.40585
M73 P25 R2
G1 X130.629 Y111.024 F18000
G1 E-.7 F2100
G1 X130.272 Y104.596 Z1.512 F18000
G1 Z1.4 F720
G1 E.7 F1500
;TYPE:Internal infill
;WIDTH:0.45
G1 F1659
G1 X130.272 Y102.596 E.0677
G1 X127.404 Y99.728 E.13729
G1 X130.272 Y99.728 E.09708
G1 X119.728 Y110.272 E.50474
G1 X119.728 Y107.404 E.09708
G1 X122.596 Y110.272 E.13729
G1 X127.404 Y110.272 E.16275
M73 Q26 S2
G1 X130.272 Y107.404 E.13729
M73 P26 R2
G1 X130.272 Y110.272 E.09708
G1 X119.728 Y99.728 E.50474
G1 X119.728 Y102.596 E.09708
G1 X122.596 Y99.728 E.13729
G1 X124.596 Y99.728 E.0677
;LAYER_CHANGE
;Z:1.6
;HEIGHT:0.2
;BEFORE_LAYER_CHANGE
G92 E0.0
;1.6
M201 X3999.81 Y3999.81
G1 E-.7 F2100
G1 X124.596 Y99.728 Z1.4 F18000
G1 X130.618 Y110.618 Z1.617
;AFTER_LAYER_CHANGE
;1.6
M74 W0.179103
G1 X130.618 Y110.618
G1 Z1.6 F720
G1 E.7 F1500
;TYPE:Perimeter
;WIDTH:0.449999
G1 F1659
G1 X119.382 Y110.618 E.38032
G1 X119.382 Y99.382 E.38032
G1 X130.618 Y99.382 E.38032
M73 Q27 S2
G1 X130.618 Y110.558 E.37829
M73 P27 R2
G1 X131.025 Y111.025 F18000
;TYPE:External perimeter
G1 F1659
G1 X118.975 Y111.025 E.40788
G1 X118.975 Y98.975 E.40788
G1 X131.025 Y98.975 E.40788
G1 X131.025 Y110.965 E.40585
M73 Q28 S2
G1 X130.629 Y111.024 F18000
M73 P28 R2
G1 E-.7 F2100
G1 X130.272 Y104.596 Z1.712 F18000
G1 Z1.6 F720
G1 E.7 F1500
;TYPE:Internal infill
;WIDTH:0.45
G1 F1659
G1 X130.272 Y102.596 E.0677
G1 X127.404 Y99.728 E.13729
G1 X130.272 Y99.728 E.09708
G1 X119.728 Y110.272 E.50474
G1 X119.728 Y107.404 E.09708
G1 X122.596 Y110.272 E.13729
G1 X127.404 Y110.272 E.16275
G1 X130.272 Y107.404 E.13729
G1 X130.272 Y110.272 E.09708
G1 X119.728 Y99.728 E.50474
M73 Q29 S2
G1 X119.728 Y102.596 E.09708
M73 P29 R2
G1 X122.596 Y99.728 E.13729
G1 X124.596 Y99.728 E.0677
;LAYER_CHANGE
;Z:1.8
;HEIGHT:0.2
;BEFORE_LAYER_CHANGE
G92 E0.0
;1.8
M201 X3999.79 Y3999.79
G1 E-.7 F2100
